X:1
T:Title
L:1/4
M:4/4
I:linebreak $
K:D
V:1 treble nm="ddle" snm="ddle"
V:1
 f d A F | G A B3/2 c/ | d A G/F/ E | D F A d |$ f d A F | G A B3/2 c/ | d A G/F/ E | D2 D2 ::$ %8
 F A2 F | A2 A2 | B B/c/ d B | B A A A |$ G3/2 [GB]/ G [GB] | F [DA] F [DA] | d A F/E/ D | D2 D2 :| %16
